flaticon/essential/checked-1.svg

<svg xmlns="http://www.w3.org/2000/svg" width="32" height="32" viewBox="0 0 24 24">
    <path d="M 21.152344 8.542969 C 20.925781 8.542969 20.746094 8.722656 20.746094 8.949219 L 20.746094 21.964844 L 0.8125 21.964844 L 0.8125 2.035156 L 20.746094 2.035156 L 20.746094 2.441406 C 20.746094 2.664062 20.925781 2.847656 21.152344 2.847656 C 21.378906 2.847656 21.558594 2.664062 21.558594 2.441406 L 21.558594 1.21875 L 0 1.21875 L 0 22.78125 L 21.558594 22.78125 L 21.558594 8.949219 C 21.558594 8.722656 21.378906 8.542969 21.152344 8.542969 Z M 21.152344 8.542969"/>
    <path d="M 23.878906 2.964844 C 23.722656 2.808594 23.464844 2.808594 23.304688 2.964844 L 10.984375 15.289062 L 5.667969 9.972656 C 5.507812 9.8125 5.25 9.8125 5.089844 9.972656 C 4.933594 10.132812 4.933594 10.390625 5.089844 10.546875 L 10.695312 16.152344 C 10.773438 16.230469 10.878906 16.269531 10.984375 16.269531 C 11.085938 16.269531 11.191406 16.230469 11.269531 16.152344 L 23.878906 3.542969 C 24.039062 3.382812 24.039062 3.125 23.878906 2.964844 Z M 23.878906 2.964844"/>
</svg>

<svg xmlns="http://www.w3.org/2000/svg" width="32" height="32" viewBox="0 0 24 24">
    <path d="M21.152 8.543a.403.403 0 0 0-.406.406v13.016H.813V2.035h19.933v.406a.406.406 0 1 0 .813 0V1.22H0V22.78h21.559V8.95a.403.403 0 0 0-.407-.406zm0 0"/>
    <path d="M23.879 2.965a.41.41 0 0 0-.574 0l-12.32 12.324-5.317-5.316a.408.408 0 0 0-.578.574l5.605 5.605a.408.408 0 0 0 .575 0L23.879 3.543a.408.408 0 0 0 0-.578zm0 0"/>
</svg>
